flaticon/household/door-3.svg

<svg xmlns="http://www.w3.org/2000/svg" width="32" height="32" viewBox="0 0 24 24">
    <path d="M17.601562 1.601562L6.398438 1.601562 6.398438 12.398438 17.601562 12.398438zM14.800781 2.398438L14.800781 2.800781 9.199219 2.800781 9.199219 2.398438zM9.199219 9.601562L14.800781 9.601562 14.800781 10 9.199219 10zM9.199219 8.800781L9.199219 8.398438 14.800781 8.398438 14.800781 8.800781zM9.199219 7.601562L9.199219 7.199219 14.800781 7.199219 14.800781 7.601562zM9.199219 6.398438L9.199219 6 14.800781 6 14.800781 6.398438zM9.199219 5.199219L9.199219 4.800781 14.800781 4.800781 14.800781 5.199219zM9.199219 4L9.199219 3.601562 14.800781 3.601562 14.800781 4zM16.800781 11.601562L7.199219 11.601562 7.199219 2.398438 8.398438 2.398438 8.398438 2.800781 8 2.800781C7.777344 2.800781 7.601562 2.980469 7.601562 3.199219 7.601562 3.421875 7.777344 3.601562 8 3.601562L8.398438 3.601562 8.398438 4 8 4C7.777344 4 7.601562 4.179688 7.601562 4.398438 7.601562 4.621094 7.777344 4.800781 8 4.800781L8.398438 4.800781 8.398438 5.199219 8 5.199219C7.777344 5.199219 7.601562 5.378906 7.601562 5.601562 7.601562 5.820312 7.777344 6 8 6L8.398438 6 8.398438 6.398438 8 6.398438C7.777344 6.398438 7.601562 6.578125 7.601562 6.800781 7.601562 7.019531 7.777344 7.199219 8 7.199219L8.398438 7.199219 8.398438 7.601562 8 7.601562C7.777344 7.601562 7.601562 7.777344 7.601562 8 7.601562 8.222656 7.777344 8.398438 8 8.398438L8.398438 8.398438 8.398438 8.800781 8 8.800781C7.777344 8.800781 7.601562 8.980469 7.601562 9.199219 7.601562 9.421875 7.777344 9.601562 8 9.601562L8.398438 9.601562 8.398438 10 8 10C7.777344 10 7.601562 10.179688 7.601562 10.398438 7.601562 10.621094 7.777344 10.800781 8 10.800781L16 10.800781C16.222656 10.800781 16.398438 10.621094 16.398438 10.398438 16.398438 10.179688 16.222656 10 16 10L15.601562 10 15.601562 9.601562 16 9.601562C16.222656 9.601562 16.398438 9.421875 16.398438 9.199219 16.398438 8.980469 16.222656 8.800781 16 8.800781L15.601562 8.800781 15.601562 8.398438 16 8.398438C16.222656 8.398438 16.398438 8.222656 16.398438 8 16.398438 7.777344 16.222656 7.601562 16 7.601562L15.601562 7.601562 15.601562 7.199219 16 7.199219C16.222656 7.199219 16.398438 7.019531 16.398438 6.800781 16.398438 6.578125 16.222656 6.398438 16 6.398438L15.601562 6.398438 15.601562 6 16 6C16.222656 6 16.398438 5.820312 16.398438 5.601562 16.398438 5.378906 16.222656 5.199219 16 5.199219L15.601562 5.199219 15.601562 4.800781 16 4.800781C16.222656 4.800781 16.398438 4.621094 16.398438 4.398438 16.398438 4.179688 16.222656 4 16 4L15.601562 4 15.601562 3.601562 16 3.601562C16.222656 3.601562 16.398438 3.421875 16.398438 3.199219 16.398438 2.980469 16.222656 2.800781 16 2.800781L15.601562 2.800781 15.601562 2.398438 16.800781 2.398438zM17.601562 14L6.398438 14 6.398438 22.398438 17.601562 22.398438zM16.800781 21.601562L7.199219 21.601562 7.199219 14.800781 16.800781 14.800781zM16.800781 21.601562"/>
    <path d="M 20.800781 21.199219 L 20.800781 0 L 3.199219 0 L 3.199219 21.199219 L 0 21.199219 L 0 24 L 24 24 L 24 21.199219 Z M 3.199219 23.199219 L 0.800781 23.199219 L 0.800781 22 L 3.199219 22 Z M 4 0.800781 L 4.800781 0.800781 L 4.800781 2.800781 L 4 2.800781 Z M 4 3.601562 L 5.199219 3.601562 L 5.199219 4 L 4 4 Z M 4 4.800781 L 4.800781 4.800781 L 4.800781 19.199219 L 4 19.199219 Z M 4 20 L 5.199219 20 L 5.199219 20.398438 L 4 20.398438 Z M 4.800781 23.199219 L 4 23.199219 L 4 21.199219 L 4.800781 21.199219 Z M 18.398438 23.199219 L 5.601562 23.199219 L 5.601562 21.199219 L 6 21.199219 L 6 19.199219 L 5.601562 19.199219 L 5.601562 4.800781 L 6 4.800781 L 6 2.800781 L 5.601562 2.800781 L 5.601562 0.800781 L 18.398438 0.800781 Z M 20 23.199219 L 19.199219 23.199219 L 19.199219 0.800781 L 20 0.800781 Z M 23.199219 23.199219 L 20.800781 23.199219 L 20.800781 22 L 23.199219 22 Z M 23.199219 23.199219"/>
    <path d="M8.398438 18C8.503906 18 8.605469 17.960938 8.683594 17.882812L10.28125 16.28125C10.4375 16.125 10.4375 15.875 10.28125 15.71875 10.125 15.5625 9.875 15.5625 9.71875 15.71875L8.117188 17.316406C7.960938 17.472656 7.960938 17.726562 8.117188 17.882812 8.195312 17.960938 8.296875 18 8.398438 18zM8.398438 20C8.503906 20 8.605469 19.960938 8.683594 19.882812L9.484375 19.082031C9.640625 18.925781 9.640625 18.671875 9.484375 18.515625 9.328125 18.359375 9.074219 18.359375 8.917969 18.515625L8.117188 19.316406C7.960938 19.472656 7.960938 19.726562 8.117188 19.882812 8.195312 19.960938 8.296875 20 8.398438 20zM9.714844 17.714844C9.644531 17.792969 9.601562 17.894531 9.601562 18 9.601562 18.105469 9.644531 18.207031 9.714844 18.285156 9.792969 18.355469 9.894531 18.398438 10 18.398438 10.105469 18.398438 10.207031 18.359375 10.285156 18.285156 10.355469 18.207031 10.398438 18.105469 10.398438 18 10.398438 17.894531 10.355469 17.792969 10.285156 17.714844 10.132812 17.566406 9.863281 17.566406 9.714844 17.714844zM10.515625 17.484375C10.59375 17.5625 10.699219 17.601562 10.800781 17.601562 10.902344 17.601562 11.003906 17.5625 11.082031 17.484375L12.28125 16.28125C12.4375 16.125 12.4375 15.875 12.28125 15.71875 12.125 15.5625 11.875 15.5625 11.71875 15.71875L10.515625 16.917969C10.359375 17.074219 10.359375 17.328125 10.515625 17.484375zM16 12.800781C15.777344 12.800781 15.601562 12.980469 15.601562 13.199219 15.601562 13.421875 15.777344 13.601562 16 13.601562L17.601562 13.601562C17.820312 13.601562 18 13.421875 18 13.199219 18 12.980469 17.820312 12.800781 17.601562 12.800781zM16 12.800781"/>
</svg>

<svg xmlns="http://www.w3.org/2000/svg" width="32" height="32" viewBox="0 0 24 24">
    <path d="M17.602 1.602H6.398v10.796h11.204zm-2.801.796v.403H9.199v-.403zM9.199 9.602h5.602V10H9.199zm0-.801v-.403h5.602v.403zm0-1.2V7.2h5.602v.403zm0-1.203V6h5.602v.398zm0-1.199v-.398h5.602v.398zM9.2 4v-.398h5.602V4zm7.602 7.602H7.199V2.398h1.2v.403H8a.398.398 0 0 0-.398.398c0 .223.175.403.398.403h.398V4H8a.398.398 0 0 0-.398.398c0 .223.175.403.398.403h.398v.398H8a.398.398 0 0 0-.398.403c0 .218.175.398.398.398h.398v.398H8a.398.398 0 0 0-.398.403c0 .219.175.398.398.398h.398v.403H8A.395.395 0 0 0 7.602 8c0 .223.175.398.398.398h.398v.403H8a.398.398 0 0 0-.398.398c0 .223.175.403.398.403h.398V10H8a.398.398 0 0 0-.398.398c0 .223.175.403.398.403h8c.223 0 .398-.18.398-.403A.398.398 0 0 0 16 10h-.398v-.398H16c.223 0 .398-.18.398-.403A.398.398 0 0 0 16 8.801h-.398v-.403H16A.395.395 0 0 0 16.398 8 .395.395 0 0 0 16 7.602h-.398v-.403H16c.223 0 .398-.18.398-.398A.398.398 0 0 0 16 6.398h-.398V6H16c.223 0 .398-.18.398-.398A.398.398 0 0 0 16 5.199h-.398v-.398H16c.223 0 .398-.18.398-.403A.398.398 0 0 0 16 4h-.398v-.398H16c.223 0 .398-.18.398-.403A.398.398 0 0 0 16 2.801h-.398v-.403H16.8zm0 0M17.602 14H6.398v8.398h11.204zm-.801 7.602H7.199V14.8h9.602zm0 0"/>
    <path d="M20.8 21.2V0H3.2v21.2H0V24h24v-2.8zm-17.6 2H.8V22h2.4zM4 .8h.8v2H4zm0 2.802h1.2V4H4zM4 4.8h.8v14.398H4zM4 20h1.2v.398H4zm.8 3.2H4v-2h.8zm13.598 0H5.602v-2H6v-2h-.398V4.8H6v-2h-.398v-2h12.796zm1.602 0h-.8V.8h.8zm3.2 0h-2.4V22h2.4zm0 0"/>
    <path d="M8.398 18c.106 0 .207-.04.286-.117l1.597-1.602a.396.396 0 0 0 0-.562.396.396 0 0 0-.562 0l-1.602 1.597a.4.4 0 0 0 .281.684zm0 0M8.398 20c.106 0 .207-.04.286-.117l.8-.801a.4.4 0 0 0-.566-.566l-.8.8a.4.4 0 0 0 .28.684zm0 0M9.715 17.715a.43.43 0 0 0-.113.285.43.43 0 0 0 .113.285.43.43 0 0 0 .285.113c.105 0 .207-.039.285-.113a.43.43 0 0 0 .113-.285.43.43 0 0 0-.113-.285.42.42 0 0 0-.57 0zm0 0M10.516 17.484a.405.405 0 0 0 .285.118c.101 0 .203-.04.281-.118l1.2-1.203a.396.396 0 0 0 0-.562.396.396 0 0 0-.563 0l-1.203 1.199a.4.4 0 0 0 0 .566zm0 0M16 12.8a.398.398 0 0 0-.398.4c0 .222.175.402.398.402h1.602a.401.401 0 0 0 0-.801zm0 0"/>
</svg>
